dist/svgs/crypto-icons/icons/ltc.svg

<?xml version="1.0" encoding="UTF-8" standalone="yes"?>
<svg xmlns="http://www.w3.org/2000/svg" xmlns:xlink="http://www.w3.org/1999/xlink" width="512px" height="512px" viewBox="0 0 384 384" version="1.1">
  <g id="surface1">
    <path style=" stroke:none;fill-rule:nonzero;fill:rgb(0%,0%,0%);fill-opacity:1;" d="M 160.226562 311.503906 L 181.84375 208.59375 L 291.085938 133.703125 L 303.890625 72.542969 L 194.628906 147.738281 L 225.660156 0 L 141.738281 0 L 96.664062 215.15625 L 50.707031 246.785156 L 40.035156 305.816406 L 83.972656 275.695312 L 61.375 383.566406 L 330.203125 383.566406 L 345.136719 311.503906 Z M 160.226562 311.503906 "/>
  </g>
</svg>

<svg xmlns="http://www.w3.org/2000/svg" viewBox="0 0 384 384"><path d="M160.227 311.504l21.617-102.91 109.242-74.89 12.805-61.161-109.262 75.195L225.66 0h-83.922L96.664 215.156l-45.957 31.63-10.672 59.03 43.938-30.12-22.598 107.87h268.828l14.934-72.062zm0 0"/></svg>
